actions/16/labplot-shift-right-x.svg

<svg xmlns="http://www.w3.org/2000/svg" width="16" height="16">
    <defs>
        <style id="current-color-scheme" type="text/css">
            .ColorScheme-Highlight{color:#4285f4}.ColorScheme-NeutralText{color:#ff9800}.ColorScheme-PositiveText{color:#4caf50}.ColorScheme-NegativeText{color:#f44336}
        </style>
    </defs>
    <path style="fill:currentColor;color:#dfdfdf" d="M11 0 9 4h4l-2-4zM7 6 3 8l4 2V6zm4 1c-.554 0-1 .446-1 1s.446 1 1 1 1-.446 1-1-.446-1-1-1zm-2 5 2 4 2-4H9z"/>
</svg>

<svg xmlns="http://www.w3.org/2000/svg" width="16" height="16" viewBox="0 0 16 16">
 <defs>
  <style id="current-color-scheme" type="text/css">
   .ColorScheme-Text { color:#dfdfdf; } .ColorScheme-Highlight { color:#4285f4; } .ColorScheme-NeutralText { color:#ff9800; } .ColorScheme-PositiveText { color:#4caf50; } .ColorScheme-NegativeText { color:#f44336; }
  </style>
 </defs>
 <path style="fill:currentColor" class="ColorScheme-Text" d="M 11 0 L 9 4 L 13 4 L 11 0 z M 7 6 L 3 8 L 7 10 L 7 6 z M 11 7 C 10.446 7 10 7.446 10 8 C 10 8.554 10.446 9 11 9 C 11.554 9 12 8.554 12 8 C 12 7.446 11.554 7 11 7 z M 9 12 L 11 16 L 13 12 L 9 12 z"/>
</svg>
